assets/svg/keeweb.svg

<svg xmlns="http://www.w3.org/2000/svg" width="50" height="50" fill="none" viewBox="0 0 50 50"><path fill="#478cf7" d="m36.15 40.2-11.19 8.88c-.37.29-.78.52-1.23.67-.45.16-.91.24-1.38.25a4.34 4.34 0 0 1-2.62-.89L8.21 40.23C2.97 36.19 0 30.52 0 24.58v-11.5C0 11.47.92 10 2.37 9.29L20.53.42q.9-.435 1.89-.42c.66 0 1.29.15 1.88.45l17.47 8.83c.71.36 1.28.88 1.69 1.55.42.68.63 1.42.63 2.21v11.72c0 5.84-2.87 11.42-7.94 15.44"/><path fill="#377de2" d="m41.77 9.28-.26-.13c.24.53.35 1.09.35 1.67v11.72c0 5.83-2.87 11.41-7.94 15.44l-11.19 8.87c-.37.3-.78.52-1.23.68q-.66.24-1.38.24c-.47.01-.93-.07-1.38-.22s-.86-.37-1.24-.66L5.98 38.01c-.38-.29-.74-.59-1.1-.9.97 1.12 2.09 2.16 3.33 3.12l11.52 8.88c.38.29.79.51 1.24.66s.91.23 1.38.22q.705 0 1.38-.24c.45-.15.86-.38 1.23-.67l11.19-8.88c5.07-4.02 7.94-9.6 7.94-15.44V13.04c0-.79-.21-1.53-.63-2.21-.41-.67-.98-1.19-1.69-1.55"/><path fill="#2266d3" d="M42.24 9.55c.49.72.74 1.51.74 2.38v11.72c0 5.83-2.88 11.41-7.95 15.44l-11.19 8.88c-.37.29-.78.52-1.22.67q-.675.24-1.38.24c-.48.01-.94-.07-1.39-.22a4 4 0 0 1-1.23-.66L7.09 39.12c-.58-.45-1.15-.93-1.69-1.44.87.93 1.8 1.78 2.81 2.55l11.52 8.88c.38.29.79.51 1.24.66s.91.23 1.38.22q.705 0 1.38-.24c.45-.15.86-.38 1.23-.67l11.19-8.88c5.07-4.02 7.94-9.6 7.94-15.44V13.04c0-.7-.16-1.35-.49-1.97s-.78-1.12-1.36-1.52"/><path fill="#5e9cf7" d="M1.33 25.02c-.12 0-.23-.04-.31-.13a.4.4 0 0 1-.13-.31c0-.25.2-.45.44-.45.13 0 .23.05.32.14.09.08.13.19.13.31s-.04.23-.13.31c-.09.09-.19.13-.32.13m0-1.77c-.12 0-.23-.05-.31-.13a.44.44 0 0 1-.13-.32v-9.72c0-1.26.73-2.43 1.87-2.99l18.16-8.87c.22-.1.49-.01.6.21s.01.48-.21.59L3.15 10.89c-.83.4-1.37 1.27-1.37 2.19v9.72c0 .25-.2.45-.45.45"/><path fill="#ffa91a" d="M22.34 41.7c.19-.07.36-.2.49-.36l1.9-2.49c.13-.17.2-.36.2-.58v-13.1c0-.56.33-1.08.83-1.33 7.54-3.79 5.17-15.44-3.72-15.59-8.89.15-11.25 11.8-3.72 15.59.51.25.83.77.83 1.33v13.1c0 .21.07.41.2.58l1.93 2.52c.12.16.28.27.47.33.2.06.39.06.59 0m-2.21-26.77c-2.03-.07-2.03-2.97 0-3.05h3.82c2.03.08 2.03 2.98 0 3.05z"/><path fill="#f79219" d="M27.26 10.07c3.07 3.74 2.56 10.05-2.61 12.66-.51.25-.83.76-.83 1.33v13.1c0 .21-.07.41-.2.58l-1.91 2.49c-.12.16-.29.29-.49.36-.17.05-.35.05-.53.01l.59.77q.18.24.48.33c.19.06.38.06.58 0 .19-.07.36-.2.49-.36l1.9-2.49c.13-.17.2-.36.2-.58v-13.1c0-.56.33-1.08.83-1.33 5.74-2.89 5.73-10.31 1.5-13.77m-6.3 19.53h-1.81v-2.61l2.12 1.71c.19.15.24.34.16.56-.08.23-.24.34-.47.34"/><path fill="#f79219" d="M20.71 37.33h-1.56v-6.46h1.56c.21 0 .39.07.53.22.15.14.22.32.22.53v4.96c0 .21-.07.39-.22.53-.14.15-.32.22-.53.22"/><ellipse cx="39.357" cy="37.606" fill="#58595b" rx="10.643" ry="10.612"/><path fill="#414042" d="M45.68 29.07c.68.91 1.2 1.91 1.55 2.99.36 1.08.54 2.18.54 3.32 0 5.86-4.77 10.61-10.65 10.61-1.14 0-2.25-.17-3.33-.53s-2.08-.87-2.99-1.55c1.93 2.61 5.04 4.3 8.55 4.3C45.23 48.21 50 43.46 50 37.6c0-3.5-1.7-6.6-4.32-8.53"/><path fill="#478cf7" d="M43.53 44.61h-8.4c-.15 0-.28-.05-.39-.16a.57.57 0 0 1-.16-.39v-7.02c0-.16.06-.29.16-.39.11-.11.24-.16.39-.16h8.4c.16 0 .29.05.39.16.11.1.16.23.16.39v7.02c0 .15-.05.28-.16.39-.1.11-.23.16-.39.16"/><path fill="#377de2" d="M43.53 36.49h-1.67v5.35c0 .15-.06.28-.17.39-.1.11-.23.16-.38.16h-6.73v1.67c0 .15.06.28.16.39.11.11.24.16.39.16h8.4c.16 0 .29-.05.39-.16.11-.11.16-.24.16-.39v-7.02c0-.16-.05-.29-.16-.39a.5.5 0 0 0-.39-.16"/><path fill="#ffa91a" d="M43.36 36.49h-1.38v-2.35c0-1.37-1.02-2.58-2.39-2.71a2.66 2.66 0 0 0-2.91 2.64v2.42H35.3v-2.33c0-2.17 1.7-4.03 3.88-4.11a4.03 4.03 0 0 1 4.18 4.02z"/><path fill="#f79219" d="M41.96 31.03c.64.75.96 1.61.96 2.59v2.42h-.94v.45h1.38v-2.42c0-1.22-.54-2.3-1.4-3.04"/></svg>

<svg width="50.000000" height="50.000000" viewBox="0 0 50 50" fill="none" xmlns="http://www.w3.org/2000/svg" xmlns:xlink="http://www.w3.org/1999/xlink">
	<desc>
			Created with Pixso.
	</desc>
	<defs/>
	<path id="path" d="M36.15 40.2L24.96 49.08C24.59 49.37 24.18 49.6 23.73 49.75C23.28 49.91 22.82 49.99 22.35 50C21.88 50 21.42 49.92 20.97 49.77C20.52 49.62 20.11 49.4 19.73 49.11L8.21 40.23C2.97 36.19 0 30.52 0 24.58L0 13.08C0 11.47 0.92 10 2.37 9.29L20.53 0.42C21.13 0.13 21.76 -0.01 22.42 0C23.08 0 23.71 0.15 24.3 0.45L41.77 9.28C42.48 9.64 43.05 10.16 43.46 10.83C43.88 11.51 44.09 12.25 44.09 13.04L44.09 24.76C44.09 30.6 41.22 36.18 36.15 40.2Z" fill="#478CF7" fill-opacity="1.000000" fill-rule="nonzero"/>
	<path id="path" d="M41.77 9.28L41.51 9.15C41.75 9.68 41.86 10.24 41.86 10.82L41.86 22.54C41.86 28.37 38.99 33.95 33.92 37.98L22.73 46.85C22.36 47.15 21.95 47.37 21.5 47.53C21.06 47.69 20.6 47.77 20.12 47.77C19.65 47.78 19.19 47.7 18.74 47.55C18.29 47.4 17.88 47.18 17.5 46.89L5.98 38.01C5.6 37.72 5.24 37.42 4.88 37.11C5.85 38.23 6.97 39.27 8.21 40.23L19.73 49.11C20.11 49.4 20.52 49.62 20.97 49.77C21.42 49.92 21.88 50 22.35 49.99C22.82 49.99 23.28 49.91 23.73 49.75C24.18 49.6 24.59 49.37 24.96 49.08L36.15 40.2C41.22 36.18 44.09 30.6 44.09 24.76L44.09 13.04C44.09 12.25 43.88 11.51 43.46 10.83C43.05 10.16 42.48 9.64 41.77 9.28Z" fill="#377DE2" fill-opacity="1.000000" fill-rule="nonzero"/>
	<path id="path" d="M42.24 9.55C42.73 10.27 42.98 11.06 42.98 11.93L42.98 23.65C42.98 29.48 40.1 35.06 35.03 39.09L23.84 47.97C23.47 48.26 23.06 48.49 22.62 48.64C22.17 48.8 21.71 48.88 21.24 48.88C20.76 48.89 20.3 48.81 19.85 48.66C19.4 48.51 18.99 48.29 18.62 48L7.09 39.12C6.51 38.67 5.94 38.19 5.4 37.68C6.27 38.61 7.2 39.46 8.21 40.23L19.73 49.11C20.11 49.4 20.52 49.62 20.97 49.77C21.42 49.92 21.88 50 22.35 49.99C22.82 49.99 23.28 49.91 23.73 49.75C24.18 49.6 24.59 49.37 24.96 49.08L36.15 40.2C41.22 36.18 44.09 30.6 44.09 24.76L44.09 13.04C44.09 12.34 43.93 11.69 43.6 11.07C43.27 10.45 42.82 9.95 42.24 9.55Z" fill="#2266D3" fill-opacity="1.000000" fill-rule="nonzero"/>
	<path id="path" d="M1.33 25.02C1.21 25.02 1.1 24.98 1.02 24.89C0.93 24.81 0.89 24.7 0.89 24.58C0.89 24.33 1.09 24.13 1.33 24.13C1.46 24.13 1.56 24.18 1.65 24.27C1.74 24.35 1.78 24.46 1.78 24.58C1.78 24.7 1.74 24.81 1.65 24.89C1.56 24.98 1.46 25.02 1.33 25.02ZM1.33 23.25C1.21 23.25 1.1 23.2 1.02 23.12C0.93 23.03 0.89 22.92 0.89 22.8L0.89 13.08C0.89 11.82 1.62 10.65 2.76 10.09L20.92 1.22C21.14 1.12 21.41 1.21 21.52 1.43C21.63 1.65 21.53 1.91 21.31 2.02L3.15 10.89C2.32 11.29 1.78 12.16 1.78 13.08L1.78 22.8C1.78 23.05 1.58 23.25 1.33 23.25Z" fill="#5E9CF7" fill-opacity="1.000000" fill-rule="nonzero"/>
	<path id="path" d="M22.34 41.7C22.53 41.63 22.7 41.5 22.83 41.34L24.73 38.85C24.86 38.68 24.93 38.49 24.93 38.27L24.93 25.17C24.93 24.61 25.26 24.09 25.76 23.84C33.3 20.05 30.93 8.4 22.04 8.25C13.15 8.4 10.79 20.05 18.32 23.84C18.83 24.09 19.15 24.61 19.15 25.17L19.15 38.27C19.15 38.48 19.22 38.68 19.35 38.85L21.28 41.37C21.4 41.53 21.56 41.64 21.75 41.7C21.95 41.76 22.14 41.76 22.34 41.7ZM20.13 14.93C18.1 14.86 18.1 11.96 20.13 11.88L23.95 11.88C25.98 11.96 25.98 14.86 23.95 14.93L20.13 14.93Z" fill="#FFA91A" fill-opacity="1.000000" fill-rule="nonzero"/>
	<path id="path" d="M27.26 10.07C30.33 13.81 29.82 20.12 24.65 22.73C24.14 22.98 23.82 23.49 23.82 24.06L23.82 37.16C23.82 37.37 23.75 37.57 23.62 37.74L21.71 40.23C21.59 40.39 21.42 40.52 21.22 40.59C21.05 40.64 20.87 40.64 20.69 40.6L21.28 41.37C21.4 41.53 21.56 41.64 21.76 41.7C21.95 41.76 22.14 41.76 22.34 41.7C22.53 41.63 22.7 41.5 22.83 41.34L24.73 38.85C24.86 38.68 24.93 38.49 24.93 38.27L24.93 25.17C24.93 24.61 25.26 24.09 25.76 23.84C31.5 20.95 31.49 13.53 27.26 10.07ZM20.96 29.6L19.15 29.6L19.15 26.99L21.27 28.7C21.46 28.85 21.51 29.04 21.43 29.26C21.35 29.49 21.19 29.6 20.96 29.6Z" fill="#F79219" fill-opacity="1.000000" fill-rule="nonzero"/>
	<path id="path" d="M20.71 37.33L19.15 37.33L19.15 30.87L20.71 30.87C20.92 30.87 21.1 30.94 21.24 31.09C21.39 31.23 21.46 31.41 21.46 31.62L21.46 36.58C21.46 36.79 21.39 36.97 21.24 37.11C21.1 37.26 20.92 37.33 20.71 37.33Z" fill="#F79219" fill-opacity="1.000000" fill-rule="nonzero"/>
	<ellipse id="circle" cx="39.357300" cy="37.605957" rx="10.642631" ry="10.611670" fill="#58595B" fill-opacity="1.000000"/>
	<path id="path" d="M45.68 29.07C46.36 29.98 46.88 30.98 47.23 32.06C47.59 33.14 47.77 34.24 47.77 35.38C47.77 41.24 43 45.99 37.12 45.99C35.98 45.99 34.87 45.82 33.79 45.46C32.71 45.1 31.71 44.59 30.8 43.91C32.73 46.52 35.84 48.21 39.35 48.21C45.23 48.21 50 43.46 50 37.6C50 34.1 48.3 31 45.68 29.07Z" fill="#414042" fill-opacity="1.000000" fill-rule="nonzero"/>
	<path id="path" d="M43.53 44.61L35.13 44.61C34.98 44.61 34.85 44.56 34.74 44.45C34.64 44.34 34.58 44.21 34.58 44.06L34.58 37.04C34.58 36.88 34.64 36.75 34.74 36.65C34.85 36.54 34.98 36.49 35.13 36.49L43.53 36.49C43.69 36.49 43.82 36.54 43.92 36.65C44.03 36.75 44.08 36.88 44.08 37.04L44.08 44.06C44.08 44.21 44.03 44.34 43.92 44.45C43.82 44.56 43.69 44.61 43.53 44.61Z" fill="#478CF7" fill-opacity="1.000000" fill-rule="nonzero"/>
	<path id="path" d="M43.53 36.49L41.86 36.49L41.86 41.84C41.86 41.99 41.8 42.12 41.69 42.23C41.59 42.34 41.46 42.39 41.31 42.39L34.58 42.39L34.58 44.06C34.58 44.21 34.64 44.34 34.74 44.45C34.85 44.56 34.98 44.61 35.13 44.61L43.53 44.61C43.69 44.61 43.82 44.56 43.92 44.45C44.03 44.34 44.08 44.21 44.08 44.06L44.08 37.04C44.08 36.88 44.03 36.75 43.92 36.65C43.82 36.54 43.69 36.49 43.53 36.49Z" fill="#377DE2" fill-opacity="1.000000" fill-rule="nonzero"/>
	<path id="path" d="M43.36 36.49L41.98 36.49L41.98 34.14C41.98 32.77 40.96 31.56 39.59 31.43C38.01 31.29 36.68 32.52 36.68 34.07L36.68 36.49L35.3 36.49L35.3 34.16C35.3 31.99 37 30.13 39.18 30.05C41.47 29.97 43.36 31.8 43.36 34.07L43.36 36.49Z" fill="#FFA91A" fill-opacity="1.000000" fill-rule="nonzero"/>
	<path id="path" d="M41.96 31.03C42.6 31.78 42.92 32.64 42.92 33.62L42.92 36.04L41.98 36.04L41.98 36.49L43.36 36.49L43.36 34.07C43.36 32.85 42.82 31.77 41.96 31.03Z" fill="#F79219" fill-opacity="1.000000" fill-rule="nonzero"/>
</svg>
